source/images/footer-icon-email.svg

<?xml version="1.0" encoding="UTF-8" standalone="no"?>
<svg width="20px" height="20px" viewBox="0 0 20 20" version="1.1" xmlns="http://www.w3.org/2000/svg" xmlns:xlink="http://www.w3.org/1999/xlink" xmlns:sketch="http://www.bohemiancoding.com/sketch/ns">
    <!-- Generator: Sketch 3.3.3 (12081) - http://www.bohemiancoding.com/sketch -->
    <title>footer-icon-email</title>
    <desc>Created with Sketch.</desc>
    <defs></defs>
    <g id="Page-1" stroke="none" stroke-width="1" fill="none" fill-rule="evenodd" sketch:type="MSPage">
        <g id="footer-icon-email" sketch:type="MSArtboardGroup" fill="#FFFFFF">
            <path d="M9.5,19 C14.7467051,19 19,14.7467051 19,9.5 C19,4.25329488 14.7467051,0 9.5,0 C4.25329488,0 0,4.25329488 0,9.5 C0,14.7467051 4.25329488,19 9.5,19 Z M15.5000072,7.82589086 C15.2991141,8.04687327 15.0714352,8.24106993 14.8303635,8.40848084 C13.7120586,9.16517817 12.5870573,9.92857194 11.4955381,10.7187515 C10.9330374,11.1339305 10.236608,11.6428597 9.50669644,11.6428597 L9.5,11.6428597 L9.49330356,11.6428597 C8.76339198,11.6428597 8.06696258,11.1339305 7.50446191,10.7187515 C6.41294275,9.9218755 5.28794141,9.16517817 4.17633294,8.40848084 C3.92856479,8.24106993 3.70088594,8.04687327 3.49999285,7.82589086 L3.49999285,13.1428615 C3.49999285,13.7321479 3.98213628,14.2142913 4.5714227,14.2142913 L14.4285773,14.2142913 C15.0178637,14.2142913 15.5000072,13.7321479 15.5000072,13.1428615 L15.5000072,7.82589086 Z M15.5000072,5.85713851 C15.5000072,5.2678521 15.0111673,4.78570867 14.4285773,4.78570867 L4.5714227,4.78570867 C3.85490398,4.78570867 3.49999285,5.34820934 3.49999285,6.00446012 C3.49999285,6.61383585 4.17633294,7.37053318 4.65177993,7.69196213 C5.6897276,8.41517728 6.74106814,9.13839243 7.77901581,9.86830401 C8.21428418,10.1696437 8.9508922,10.7857158 9.49330356,10.7857158 L9.5,10.7857158 L9.50669644,10.7857158 C10.0491078,10.7857158 10.7857158,10.1696437 11.2209842,9.86830401 C12.2589319,9.13839243 13.3102724,8.41517728 14.3549165,7.69196213 C14.9442029,7.2834795 15.5000072,6.60713941 15.5000072,5.85713851 Z" id="Oval-1" sketch:type="MSShapeGroup"></path>
        </g>
    </g>
</svg>

<svg width="20" height="20" viewBox="0 0 20 20" xmlns="http://www.w3.org/2000/svg">
  <path d="M9.5 19c5.247 0 9.5-4.253 9.5-9.5S14.747 0 9.5 0 0 4.253 0 9.5 4.253 19 9.5 19zm6-11.174c-.2.22-.43.415-.67.582-1.118.757-2.243 1.52-3.334 2.31-.563.416-1.26.925-1.99.925H9.494c-.73 0-1.426-.51-1.99-.924-1.09-.798-2.215-1.555-3.327-2.312-.247-.167-.475-.36-.676-.582v5.317c0 .59.482 1.07 1.07 1.07h9.86c.588 0 1.07-.48 1.07-1.07V7.826zm0-1.97c0-.588-.49-1.07-1.07-1.07H4.57c-.715 0-1.07.562-1.07 1.218 0 .61.676 1.367 1.152 1.688 1.038.723 2.09 1.446 3.127 2.176.434.302 1.17.918 1.713.918h.014c.542 0 1.28-.616 1.714-.918 1.04-.73 2.09-1.453 3.135-2.176.59-.41 1.145-1.085 1.145-1.835z" fill="#FFF" fill-rule="evenodd"/>
</svg>
